!!!OTL: 174i. Maedchen und Lorbeerbaum.
!!!ODT: 1890
!!!ARE: Europa, Mitteleuropa, Deutschland, Rheinland
!!!SCT: E0174D
!!!TXL: @@DE
!!!YEM: Copyright 1995, estate of Helmut Schaffrath.
**kern	**text
*ICvox	*
*M3/4	*
*k[f#]	*
*G:	*
!LO:TX:a:t=Ziemlich bewegt.	!
!LO:TX:a:t=Rheinländiſch. 1890.	!
{4d	Es
=1	=1
8g	wollt
8b	ein
(4b	Mäd-
8a)	.
8g	-chen
=2	=2
8f#	tan-
8a	-ʒen
4d	gehn,
8r}	.
{8d	ſchnee
=3	=3
8g	weiß
8b	war
4.dd	ſie
8b	ge-
=4	=4
4b/	-klei-
4a}	-det,
{4d	Es
=5	=5
8g	wollt
8b	ein
(4b	Mäd-
8a)	.
8g	-chen
=6	=6
8f#	tan-
8a	-ʒen
4d	gehn,
8r}	.
{8d	ſchnee
=7	=7
8g	weiß
8b	war
4.dd	ſie
8b	ge-
=8	=8
4b/	-klei-
4a}	-det,
{8aL	Da
8bJ	.
=9	=9
8cc	ſah
8ee	ſie
(4ee	an
8dd)	.
8cc	dem
=10	=10
16bL	We-
16ccJ	.
16ddL	-ge
16eeJ	.
4.dd}	ſtehn
{8b	ein
=11	=11
8a	Lor-
8b	-beer-
4.cc	-baum
8dd	ſo
=12	=12
4cc	grü-
4b}	-ne.
{8aL	Da
8bJ	.
=13	=13
8cc	ſah
8ee	ſie
(4ee	an
8dd)	.
8cc	dem
=14	=14
16bL	We-
16ccJ	.
16ddL	-ge
16eeJ	.
4.dd}	ſtehn
{8b	ein
=15	=15
8a	Lor-
8b	-beer-
4.cc	-baum
8dd	ſo
=16	=16
4cc	grü-
4b}	-ne.
==	==
!!!AGN: erzaehlendes Volks - Lied, Sage, Pflanzen - Maerchen, Moral - Lied
!!!ONB: ESAC (Essen Associative Code) Database: ERK1
!!!AMT: simple triple
!!!AIN: vox
!!!EED: Helmut Schaffrath
!!!EEV: 1.0
!!!GTL: Thiersage und Pflanzenmaerchen
!!!URL-scan: https://rosdok.uni-rostock.de/mcrviewer/recordIdentifier/rosdok_ppn745146120/iview2/phys_0606.iview2?x=-128.7727644188933&y=106.82304101763293&scale=0.5870222003877484&rotation=0&layout=singlePageLayout
!!!ENC: Anna Maria Matuszewska
!!!EEV: 2024/04/12
*-	*-
